X:1
T:Title
%%score [ ( 1 2 ) ( 3 4 ) ]
L:1/8
Q:1/4=120
M:2/2
K:Bb
V:1 treble nm=" " snm=" "
V:2 treble 
V:3 bass nm="Midi_74"
V:4 bass 
V:1
 (d4 c2) B2 |"^/ Slav'sya" c4 B2 c2 | d4 (f2 d2) | c8 | d4 c2"^M. Glinka" B2 | c4 B2 c2 | %6
[M:2/2] d4 f2 d2 | c4 (c2 d2) | e4 d2 c2 | B4 B2 A2 | B4 g4 | f6 d2 | (c2 A2) B2 d2 | %13
 (c2 A2) B2 d2 | c4 c2 c2 | F8 ||[M:4/4] (d4 c2) B2 | c4 B2 c2 | d4 (f2 d2) | c8 | d4 c2 B2 | %21
 c4 B2 c2 |[M:2/2] d4 f2 d2 | c4 (c2 d2) | e4 d2 c2 | B4 B2 A2 | B4 g4 | f6 d2 | (c2 A2) B2 d2 | %29
 (c2 A2) B2 d2 | c4 c2 c2 | F8 || z8 | z8 | z8 | z8 | B4 A2 G2 | A4 G2 A2 | B4 B2 B2 | c4 (c2 d2) | %40
 e4 d2 c2 | B4 B2 A2 | B4 g4 | f6 d2 | (c2 A2) B2 d2 | (c2 A2) B2 d2 | c4 c2 c2 | F8 || d4 c4 | %49
 d4 c4 | B4 c4 |[M:1/2] d3"^," B |[M:2/2] B4- B3"^," d | d4- d3"^," f | f4- f3"^," f | [fb]8 |] %56
V:2
 F6 F2 | F4 F2 F2 | B4 B4 | A8 | F4 F2 F2 | F4 F2 F2 |[M:2/2] B4 B2 B2 | A4 _A4 | G4 G2 G2 | %9
w: * ,|||,||||, *||
w: Slav'- sya,|slav'- sya ty|Rus' mo-|ya,|slav'- sya svya-|ta- ya ot-|chiz- na mo-|ya, da|bu- dyet vo|
 G4 G2 G2 | G4 B4 | B6 F2 | F4 F2 F2 | F4 F2 F2 | C4 C2 C2 | F8 ||[M:4/4] F6 F2 | F4 F2 F2 | %18
w: ||, *||||.|* ,||
w: vye- ki vye-|kov sil'-|na, lyu-|bi- ma- ya|na- sha rod-|na- ya stra-|na.|Slav'- sya,|slav'- sya iz|
 B4 B4 | A8 | F4 F2 F2 | F4 F2 F2 |[M:2/2] B4 B2 B2 | A4 _A4 | G4 G2 G2 | G4 G2 G2 | G4 B4 | %27
w: |~,||||, *||||
w: ro- da|v~rod,|slav'- sya vye-|li- ki nash|rus- ski na-|rod, vra-|gov po- sya-|gnuv- shikh na|kray rod-|
 B6 F2 | F4 F2 F2 | F4 F2 F2 | C4 C2 C2 | F8 || (D4 C2) B,2 | C4 B,2 C2 | D4 F2 D2 | C8 | %36
w: , *||* , *||.|* * ,|||,|
w: noy, ra-|zi byes- po-|shchad- noi, mo-|gu- chey ru-|koy.|Sla * va,|sla- va gye-|ro- yam boi-|tsam,|
 F4 F2 F2 | F4 F2 F2 | F4 D2 B2 | A4 _A4 | G4 G2 G2 | G4 G2 G2 | G4 B4 | B6 F2 | F4 F2 F2 | %45
w: |||||||||
w: Ro- di- ny|na- shei ot-|vazh- nym sy-|nam kto|krov' za Ot-|chiz- nu svo-|yu pro-|lyot to-|vo ni- kog-|
 F4 F2 F2 | C4 C2 C2 | F8 || F4 F4 | F4 F4 | F4 F4 |[M:1/2] F3 B |[M:2/2] B4- B3 B | B4- B3 B | %54
w: ||.|* ,|||. *|! * *|! * *|
w: da nye za-|bu- dyet na-|rod.|Slav'- sya,|slav'- sya|nash na-|rod. U-|ra! * U-|ra! * U-|
 B4- B3 B | [Bd]8 |] %56
w: ! * *|!|
w: ra! * U-|ra!|
V:3
 (D4 C2) B,2 | C4 B,2 C2 | D4 D4 | C8 | D4 C2 B,2 | C4 B,2 C2 |[M:2/2] D4 D2 D2 | C4 C4 | %8
 C4 C2 C2 | D4 D2 D2 | E4 E4 | D6 B,2 | (A,2 C2) D2 B,2 | (A,2 C2) D2 B,2 | C4 C2 C2 | F,8 || %16
[M:4/4]"^This edition  Andrew Sims 2012" (D4 C2) B,2 | C4 B,2 C2 | D4 D4 | C8 | D4 C2 B,2 | %21
 C4 B,2 C2 |[M:2/2] D4 D2 D2 | C4 C4 | C4 C2 C2 | D4 D2 D2 | E4 E4 | D6 B,2 | (A,2 C2) D2 B,2 | %29
 (A,2 C2) D2 B,2 | C4 C2 C2 | F,8 || (B,4 A,2) G,2 | A,4 G,2 A,2 | B,4 D2 B,2 | A,8 | D4 C2 B,2 | %37
 C4 B,2 C2 | D4 F2 D2 | C4 C4 | C4 C2 C2 | D4 D2 D2 | E4 E4 | D6 B,2 | (A,2 C2) D2 B,2 | %45
 (A,2 C2) D2 B,2 | C4 C2 C2 | F,8 || B,4 A,4 | B,4 A,4 | B,4 A,4 |[M:1/2] B,3 B, | %52
[M:2/2] B,4- B,3 B, | B,4- B,3 D | D4- D3 D | F8 |] %56
V:4
 ([B,,B,]4 [A,,A,]2) [G,,G,]2 | [A,,A,]4 [G,,G,]2 [A,,A,]2 | [B,,B,]4 [D,B,]4 | F,8 | %4
 [B,,B,]4 [A,,A,]2 [G,,G,]2 | [A,,A,]4 [G,,G,]2 [A,,A,]2 |[M:2/2] [B,,B,]4 [D,B,]2 [D,B,]2 | %7
 F,4 F,4 | C,4 E,2 E,2 | G,4 G,2 G,2 | E,4 E,4 | B,6 B,2 | F,4 F,2 F,2 | F,4 F,2 F,2 | %14
 C,4 C,2 C,2 | F,8 ||[M:4/4] ([B,,B,]4 [A,,A,]2) [G,,G,]2 | [A,,A,]4 [G,,G,]2 [A,,A,]2 | %18
 [B,,B,]4 [D,B,]4 | F,8 | [B,,B,]4 [A,,A,]2 [G,,G,]2 | [A,,A,]4 [G,,G,]2 [A,,A,]2 | %22
[M:2/2] [B,,B,]4 [D,B,]2 [D,B,]2 | F,4 F,4 | C,4 E,2 E,2 | G,4 G,2 G,2 | E,4 E,4 | B,6 B,2 | %28
 F,4 F,2 F,2 | F,4 F,2 F,2 | C,4 C,2 C,2 | F,8 || F,6 F,2 | F,4 F,2 F,2 | F,4 F,2 F,2 | F,8 | %36
 F,4 F,2 F,2 | F,4 F,2 F,2 | F,4 F,2 F,2 | F,4 F,4 | C,4 E,2 E,2 | G,4 G,2 G,2 | E,4 E,4 | %43
 B,6 B,2 | F,4 F,2 F,2 | F,4 F,2 F,2 | C,4 C,2 C,2 | F,8 || B,4 F,4 | B,4 F,4 | D,4 F,4 | %51
[M:1/2] B,3 B, |[M:2/2] B,4- B,3 B, | B,4- B,3 B, | B,4- B,3 B, | B,8 |] %56

